svgs/mj_pdf_reader.svg

<svg width="192" height="192" fill="none" xml:space="preserve" xmlns="http://www.w3.org/2000/svg"><path d="M70.424 139.961v-36.892m38.521 36.891v-36.89m38.522 36.89v-36.89M22 139.959v-36.892l16.576 29.905 16.576-29.905v54.96" style="opacity:1;fill:none;stroke:#000;stroke-width:12;stroke-linecap:round;stroke-linejoin:round;stroke-dasharray:none;stroke-opacity:1"/><path style="opacity:1;fill-opacity:1;stroke:#000;stroke-width:12;stroke-linecap:round;stroke-linejoin:round;stroke-dasharray:none;stroke-opacity:1" d="M55.152 158.027a10.347 10.578 0 0 1-6.388 9.773 10.347 10.578 0 0 1-11.276-2.293m47.716-62.438a8.47 9.223 0 0 1 8.47 9.223 8.47 9.223 0 0 1-8.47 9.223m38.521-18.446a8.47 9.223 0 0 1 8.47 9.223m0 18.446a8.47 9.223 0 0 1-8.47 9.223"/><path style="opacity:1;fill:none;stroke:#000;stroke-width:12;stroke-linecap:butt;stroke-linejoin:miter;stroke-dasharray:none;stroke-opacity:1" d="M70.424 103.069h14.933m23.588 0h14.933m-15.085 36.891h14.932m-53.301-18.445h14.78m46.991-9.223v18.446"/><path style="opacity:1;fill:none;stroke:#000;stroke-width:12;stroke-linecap:round;stroke-linejoin:miter;stroke-dasharray:none;stroke-opacity:1" d="M147.421 103.069H170m-22.533 18.446h18.907M22 23.407h148"/><path style="fill:none;stroke:#000;stroke-width:12;stroke-linecap:round;stroke-linejoin:miter;stroke-dasharray:none;stroke-opacity:1" d="M22 49.961h148M22 76.515h105.677"/></svg>

<svg width="192" height="192" fill="none" xml:space="preserve" xmlns="http://www.w3.org/2000/svg"><path d="M70.424 139.961v-36.892M108.945 139.96V103.07M147.467 139.96V103.07M22 139.959v-36.892l16.576 29.905 16.576-29.905v54.96" style="opacity:1;fill:none;stroke:#000;stroke-width:12;stroke-linecap:round;stroke-linejoin:round;stroke-dasharray:none;stroke-opacity:1"/><path style="opacity:1;fill-opacity:1;stroke:#000;stroke-width:12;stroke-linecap:round;stroke-linejoin:round;stroke-dasharray:none;stroke-opacity:1" d="M55.152 158.027a10.347 10.578 0 0 1-6.388 9.773 10.347 10.578 0 0 1-11.276-2.293M85.204 103.069a8.47 9.223 0 0 1 8.47 9.223 8.47 9.223 0 0 1-8.47 9.223M123.725 103.069a8.47 9.223 0 0 1 8.47 9.223M132.195 130.738a8.47 9.223 0 0 1-8.47 9.223"/><path style="opacity:1;fill:none;stroke:#000;stroke-width:12;stroke-linecap:butt;stroke-linejoin:miter;stroke-dasharray:none;stroke-opacity:1" d="M70.424 103.069h14.933M108.945 103.069h14.933M108.793 139.96h14.932M70.424 121.515h14.78M132.195 112.292v18.446"/><path style="opacity:1;fill:none;stroke:#000;stroke-width:12;stroke-linecap:round;stroke-linejoin:miter;stroke-dasharray:none;stroke-opacity:1" d="M147.421 103.069H170M147.467 121.515h18.907M22 23.407h148"/><path style="fill:none;stroke:#000;stroke-width:12;stroke-linecap:round;stroke-linejoin:miter;stroke-dasharray:none;stroke-opacity:1" d="M22 49.961h148M22 76.515h105.677"/></svg>
